X: 40865
T: Trees They Do Grow High, The
R: hornpipe
M: 4/4
K: Adorian
E|EA AB c2 BB|AA GF E2- EF|G2 GF GA (3BAG|AF DD D2 CD|
E2 ed GB de|[M:6/4] AB AB AG E4 EF|[M:4/4] GA GE D2 CD|E2 A2 A3 G||

